X: 1
T: Woodchopper's Reel
O: French-Canadian
Z: 1997 by John Chambers <jc:trillian.mit.edu>
S: Donna Hebert
M: C|
L: 1/8
K: D
ef |\
"D"af dB Ad FA | DF Ad f2 ef | "A7"g{f}e cB Ac e^g | a^g ab a2 f=g || "D"af dB Ad FA |
DF Ad f2 ef | "A7"g{f}e cB Ac ec | "D"df "A7"ec "D"d2 :: AF | "D"DF Ad (3BdB AF | DF Ad (3BdB A2 |
"A7"A,C EA ce af | gf ed cB AF || "D"DF Ad (3BdB AF | DF Ad (3BdB A2 | "A7"A,C EA ce af | g{f}e cA "D"d2 :|
